X:1
T:Salvation
T:Edmund Jones, 1787          86. 86. (C. M.) 
T:Transcribed from Kentucky Harmony, 1817.
T:E minor                       Robert Boyd, 1816 
%%score [ 1 2 3 4 ]
L:1/8
Q:1/4=130
M:4/4
K:G
V:1 treble nm="Tr." snm="Tr."
V:2 treble nm="C." snm="C."
V:3 treble-8 nm="T." snm="T."
V:4 bass nm="B." snm="B."
V:1
"^Come,    humble  sinner,   in whose breast  A  thousand thoughts revolve,\nCome, with your guilt and fear oppressed,  And  make  this  last   resolve.\n""^1. {" E4 |: %1
 G2 G2 B2 A2 | G2 B2 B2 d2 | B3 d e2 B2 |1"^}" B4 E4 :|2 %5
 B4"^I'll      go   to   Je – sus   though  my  sin    Hath like a mountain rose;   I  know his\n" B4 |: %6
 B2 e2 d2 G2 | A2 BA A4 | B4 d2 d2 | e2 B2 B4 | B4 B2 d2 | %11
"^1. courts  I'll    en  –  ter     in,   Whatever      may    op  –  pose.                   may    op  –  pose.\n" e2 e2 B2 GA | %12
 B2 d2 e3 f |1 e2 d2 e4- | e4 B4 :|2 e2 d2 e4- | e8 |] %17
V:2
"^Pros – trate  I'll  lie  be – fore  his  throne,  And  there  my  guilt  confess,\n  I'll     tell   him  I'm  a  wretch  un –done   Without  his  sovereign grace.\n\n""^2. {" G4 |: %1
 E2 E2 D2 D2 | B,2 B,2 E2 F2 | E3 D EG F2 |1"^}" G4 G4 :|2 %5
 G4"^I'll       to   the  gracious King  approach, Whose scepter pardon gives,  Perhaps he\n\n" E4 |: %6
 F2 G2 G2 G2 | F2 D2 D4 | D4 D2 D2 | G2 F2 E4 | E4 B2 B2 | %11
"^2.  may  command   my touch, And then the  sup – pliant  lives.                   sup – pliant  lives.\n\n" E2 E2 B2 BA | %12
 G2 D2 B,3 D |1 E2 FD E4- | E4 E4 :|2 E2 FD E4- | E8 |] %17
V:3
"^Per   –  haps   he  will   admit     my  plea,  Perhaps  will  hear  my  prayer;\n But        if     I    pe – rish    I   will   pray,  And   pe – rish   on – ly   there.\n\n""^3. {" B4 |: %1
 G2 E2 F2 D2 | E2 EF G2 A2 | B3 G AG F2 |1"^}" E4 B4 :|2 %5
 E4"^I        can   but   perish      if     I       go,        I   am  resolved  to  try:     For   if    I\n\n" B4 |: %6
 d2 B2 G2 Bc | d2 Bc A4 | G4 A2 A2 | B2 d2 e4 | e4 d2 B2 | %11
"^3. stay    a  –  way,   I        know I  must  for – ev  –   er      die.                    – ev  –  er      die.\n\n" BA AG E2 EF | %12
 G2 A2 B3 G |1 AG F2 E4- | E4 B4 :|2 AG F2 E4- | E8 |] %17
V:4
 E,4 |: E,2 E,2 B,,2 D,2 | G,2 G,F, E,2 D,2 | G,3 D, D,E, A,,2 |1 E,4 E,4 :|2 E,4 E,4 |: %6
 D,2 E,2 G,2 G,2 | D,2 D,2 D,4 | G,4 D,2 D,2 | B,,2 B,,2 E,4 | E,4 G,2 G,2 | %11
 G,A, A,B, B,2"^___________________________________________\nEdited by B. C. Johnston, 2019\n1. \nCounter\n scored in Bass clef, transposed to Treble clef.\n   2.  Rests eliminated in measures 1 and 6.\n" B,A, | %12
 G,2 F,2 E,3 A,, |1 A,,B,, B,,2 E,4- | E,4 E,4 :|2 A,,B,, B,,2 E,4- | %16
"^___________________________________________________________________________\nA folk hymn (Jackson 1953a, no. 95). Also copied in Moore's \nColumbian Harmony\n, 1825; \nVirginia Harmony \n1831, \nCompilation of Genuine Church Music\n, 1832-1835, \nSouthern \nHarmony\n 1835, \nThe Hesperian Harp\n 1848, and several other tunebooks. \n" E,8 |] %17

